X:286
T:B286-  Lilliburlero
Q:300
M:6/4
L:1/4
K:G
|:GAG B2B|ABA c3|BdG c2B|AGF G3:|g2f g2d|de=f e2e|
def gde|dcB A2d|edc Bcd|edc Bcd|egG c2B|AGF G3||